X: 17052
T: Heather Breeze, The
R: reel
M: 4/4
K: Gmajor
|:D<GG>F D<GG>E|(3=FFF c>F d>Fc>F|D>G(3GGG D<GG>A|B>dcA BG[G2B2]:|
[Bg]>f [Bg]>f [B2g2] a>g|f>d (3ddd f<d[d2f2]|g>dg>d g>A a>A|f<d ^c>A A<G G2|
[B2g2][Bg]>f [B2g2]a>g|fd(3ddd f>A a2|b>aa>g g2a>g|fd^c>A A<G G2|
D<GG>G D<GG>G|D<EF>E D<EF>E|D>G(3GGG D<G G2|B>d (3^cAA B>G [GB]>G|
D>G (3GGG D<G G>F|D<EF>E D<EF>E|D>G (3GGG D<G B>G|B>d^c>A B<G[G2B2|
g>fg2g2a>g|f<d [df]>d f<d [df]>d|g>dg<f g>aa>g|f<d^c>A A<GG2|
[B2g2] [Bg]>f [B2g2]a>g|f<dd>d f<aa2|b>aa>g g<ga>g|f<dc>A A<GG2|

